icons/desktop/12/svg/bookmark-12.svg

<svg width="12" height="12" viewBox="0 0 12 12" fill="none" xmlns="http://www.w3.org/2000/svg">
<path fill-rule="evenodd" clip-rule="evenodd" d="M4.75429 1.23686C5.20441 0.106918 6.80223 0.106918 7.25234 1.23686L8.11367 3.40093L10.7377 3.57085C11.8701 3.64391 12.4588 5.05338 11.5893 5.87749C11.4246 6.03372 11.2497 6.19194 11.0629 6.34917C10.4924 6.82938 9.93629 7.20373 9.43886 7.49663L10.06 9.93218C10.3501 11.0688 9.18243 11.9454 8.18496 11.481L8.08926 11.4322C7.92107 11.3379 7.74994 11.2369 7.57656 11.1294L7.05019 10.7867C6.66277 10.5213 6.31471 10.2509 6.00234 9.98784C5.68975 10.2503 5.3425 10.5206 4.95644 10.7857C4.77927 10.9073 4.60338 11.022 4.43008 11.1294L3.91738 11.4322C2.90092 12.0015 1.64624 11.1054 1.9457 9.93218L2.20351 8.92436L2.56679 7.49663C2.06995 7.20391 1.51313 6.82934 0.942771 6.34917C0.75609 6.19201 0.581002 6.03462 0.416404 5.87846L0.417381 5.87749C-0.452256 5.05339 0.136516 3.64391 1.26894 3.57085L3.89199 3.40093L4.75429 1.23686ZM6.00332 1.63921C5.98009 1.63921 5.96083 1.64602 5.94863 1.65385C5.93957 1.65975 5.92672 1.67064 5.91543 1.69878L4.90762 4.231C4.81838 4.45522 4.60742 4.60802 4.3666 4.62358L1.34902 4.81889C1.32222 4.82062 1.30646 4.82876 1.29531 4.83745C1.28189 4.84805 1.26828 4.86482 1.26015 4.88628C1.25212 4.90758 1.25226 4.92537 1.25429 4.93608L1.27676 4.97124C1.3505 5.0412 1.42666 5.11185 1.50527 5.18218L1.74844 5.39311L1.99551 5.59526C2.56941 6.0495 3.11873 6.38738 3.58535 6.63725C3.83875 6.77294 3.96782 7.06379 3.89687 7.34233L3.15761 10.2417C3.14999 10.2717 3.15429 10.2876 3.15761 10.2964C3.16216 10.3083 3.17155 10.3234 3.18886 10.3365C3.20641 10.3497 3.22635 10.3565 3.24355 10.358C3.25773 10.3591 3.27765 10.3572 3.30605 10.3414C3.61162 10.17 3.92799 9.97604 4.24941 9.75542C4.6283 9.4952 4.96768 9.22962 5.2709 8.97124C5.27701 8.96603 5.28414 8.96154 5.29043 8.95659C5.68746 8.63096 6.24099 8.61483 6.65371 8.90776L6.73574 8.97124C7.03758 9.22928 7.37743 9.49526 7.75722 9.75542L8.23476 10.0669C8.39217 10.1645 8.54773 10.2556 8.70058 10.3414C8.72901 10.3572 8.74891 10.3592 8.76308 10.358C8.78028 10.3565 8.80023 10.3497 8.81777 10.3365C8.83506 10.3234 8.84448 10.3083 8.84902 10.2964C8.85234 10.2876 8.85664 10.2717 8.84902 10.2417L8.10976 7.34233C8.03876 7.06362 8.16763 6.77186 8.42129 6.63628C8.95498 6.35099 9.59543 5.95106 10.2582 5.39311C10.4254 5.25234 10.5826 5.11101 10.7299 4.97124L10.7523 4.93608C10.7544 4.92534 10.7536 4.90764 10.7455 4.88628C10.7374 4.86491 10.7247 4.84803 10.7113 4.83745C10.7002 4.82878 10.6844 4.82064 10.6576 4.81889L7.63906 4.62358C7.39841 4.60787 7.18821 4.45509 7.09902 4.231L6.09121 1.69975C6.07974 1.67115 6.06612 1.65969 6.05703 1.65385C6.04483 1.64608 6.0264 1.63922 6.00332 1.63921Z" fill="black"/>
</svg>

<!-- This Source Code Form is subject to the terms of the Mozilla Public
   - License, v. 2.0. If a copy of the MPL was not distributed with this
   - file, You can obtain one at http://mozilla.org/MPL/2.0/. -->
<svg xmlns="http://www.w3.org/2000/svg" width="12" height="12" fill="context-fill" fill-opacity="context-fill-opacity" viewBox="0 0 12 12">
    <path fill-rule="evenodd" d="M4.754 1.237c.45-1.13 2.048-1.13 2.498 0L8.114 3.4l2.624.17c1.132.073 1.72 1.482.851 2.306q-.246.236-.526.472c-.57.48-1.127.855-1.624 1.148l.621 2.435c.29 1.137-.878 2.013-1.875 1.549l-.096-.049q-.253-.141-.512-.303l-.527-.342a13 13 0 0 1-1.048-.8A13.6 13.6 0 0 1 4.43 11.13l-.513.303c-1.016.57-2.27-.327-1.971-1.5l.258-1.008.363-1.427a12 12 0 0 1-2.15-1.619c-.87-.825-.28-2.234.852-2.307l2.623-.17zm1.25.402a.1.1 0 0 0-.055.015.1.1 0 0 0-.034.045L4.908 4.23a.63.63 0 0 1-.541.393l-3.018.195a.1.1 0 0 0-.054.018.1.1 0 0 0-.035.05.1.1 0 0 0-.006.05l.023.034q.111.105.228.211l.243.211.248.202c.573.455 1.123.792 1.59 1.042a.625.625 0 0 1 .31.705l-.738 2.9c-.008.03-.004.046 0 .054a.1.1 0 0 0 .03.04q.028.02.056.022c.014.001.034 0 .062-.017a12.3 12.3 0 0 0 1.965-1.37l.02-.014c.396-.326.95-.342 1.363-.05l.082.064c.302.258.641.524 1.021.784l.478.312q.236.147.466.274a.1.1 0 0 0 .062.017.1.1 0 0 0 .055-.022.1.1 0 0 0 .031-.04c.003-.008.008-.024 0-.054l-.74-2.9a.626.626 0 0 1 .312-.706 10.6 10.6 0 0 0 2.309-1.665l.022-.035a.1.1 0 0 0-.007-.05.1.1 0 0 0-.034-.049.1.1 0 0 0-.053-.018l-3.019-.195a.63.63 0 0 1-.54-.393L6.091 1.7a.1.1 0 0 0-.034-.046.1.1 0 0 0-.054-.015" clip-rule="evenodd" />
</svg>
